X:1
T:Title
%%score { ( 1 3 ) | ( 2 4 ) }
L:1/8
M:4/4
K:C
V:1 treble nm="Grand Piano"
V:3 treble 
V:2 bass 
V:4 bass 
V:1
 z4 z2[Q:1/4=106] [EG]2 | [CE]3 [DF] [_E^F]2 [=EG]2 | [FA]2 [EG]4 [Gc]>[Gc] | A2 c2 d2 c2 | %4
[M:3/4] [EG]6 |[M:1/4] G>A |[M:4/4] G2 F2 D2 F2 | E2 [EG]4 [EA]>[Ec] | B2 D2 A3 B | %9
[M:3/4] [G,B,G]6 |[M:1/4] z2 |[M:4/4] [Fe]2 [Fd]2 [FA]2 [FB]2 | [Ec]2 [EG]4 G2 | %13
 [Fd]2 [FB]2 [FA]2 [FG]2 |[M:3/4] [Ec]6 |[M:1/4] [Gc]2 |[M:4/4] [Fc]3 [Fc] [GB]2 [FA]2 | %17
 [EG]2 [CE]4 [EG]2 | A2 d2 c2 [FB]2 |[M:5/8] [Ec]-[Ec]- [Ec]3 |[M:3/8] G^FG |[M:4/4] A2 G2 A2 G2 | %22
 [B,GB]2 [B,FGB]2 .[B,FGB]2 z2 | [CEA]2 [CEG]2 [CEA]2 [CEG]2 | [EGc]2 [EGc]2 [EGc]2 G2 | %25
 [Ge]4 [Ec]2 [EG]2 | [FA]2 [GA]2 [FA]4 | [^Fd]4 [Fc]2 A2 | B2 c2 d2 G2 | A2 B2 c2 [Ad]2 | %30
 [^Ge]6 [Ad]2 | c3 c B2 B2 |[M:3/4] [Ec]6 |] %33
V:2
 z4 z2 [C,G,]2 | [C,G,]3 [C,G,] [C,A,]2 [C,G,]2 | [C,C]2 [C,C]4 [E,C]>[E,C] | %3
 [F,CF]2 [F,A,F]2 [F,^G,F]2 [F,A,F]2 |[M:3/4] [C,C]6 |[M:1/4] [C,C]2 | %6
[M:4/4] [G,B,D]2 [G,B,D]2 [G,B,]2 [G,B,D]2 | [C,G,C]2 [C,C]4 [C,C]>[C,G,] | %8
 [D,G,D]2 [D,G,B,]2 [D,^F,C]3 [D,F,D] |[M:3/4] G,,6 |[M:1/4] G2 |[M:4/4] G,,2 G,2 B,2 G,2 | %12
 C,2 G,2 C2 G,2 | G,,2 G,2 A,2 B,2 |[M:3/4] C2 G,E, C,2 |[M:1/4] [E,_B,]2 | %16
[M:4/4] [F,A,]3 [F,A,] [F,B,]2 [F,C]2 | [C,C]2 [C,G,]4 [C,C]2 | [F,CF]2 [F,A,F]2 [G,E]2 [G,,G,]2 | %19
[M:5/8] [C,G,]-[C,G,]- [C,G,]3 |[M:3/8] z3 |[M:4/4][K:treble] [A,B,F]2 [G,B,F]2 [A,B,F]2 [G,B,F]2 | %22
 G,[K:bass]F,D,B,, z[K:treble] G^FG | A,2 G,2[K:bass] A,2 G,2 | CA,G,E, C,2 G,2 | %25
 [C,C]4 [C,G,]2 [C,C]2 | [F,C]2 [E,^C]2 [D,D]4 | [D,A,]4 [D,D]2[K:treble] [CD^F]2 | %28
 [B,DG]2 [A,C^F]2 [G,B,=F]2 G,2 | A,2 B,2 C2 [F,A,]2 | [E,B,]6[K:treble] [F,F]2 | %31
 [G,EG]3 [G,EG] [G,DF]2 [G,DF]2 |[M:3/4][K:bass] [C,C]6 |] %33
V:3
 x8 | x8 | x8 | x8 |[M:3/4] x6 |[M:1/4] E2 |[M:4/4] x8 | x8 | x8 |[M:3/4] x6 |[M:1/4] x2 | %11
[M:4/4] x8 | x8 | x8 |[M:3/4] x6 |[M:1/4] x2 |[M:4/4] x8 | x8 | x8 |[M:5/8] x5 |[M:3/8] x3 | %21
[M:4/4] x8 | x8 | x8 | x8 | x8 | x8 | x8 | x8 | x8 | x8 | x8 |[M:3/4] x6 |] %33
V:4
 x8 | x8 | x8 | x8 |[M:3/4] x6 |[M:1/4] x2 |[M:4/4] x8 | x8 | x8 |[M:3/4] x6 |[M:1/4] x2 | %11
[M:4/4] x8 | x8 | x8 |[M:3/4] x6 |[M:1/4] x2 |[M:4/4] x8 | x8 | x8 |[M:5/8] x5 |[M:3/8] x3 | %21
[M:4/4][K:treble] x8 | z4[K:bass] G,,2[K:treble] z2 | x4[K:bass] x4 | x8 | x8 | x8 | %27
 x6[K:treble] x2 | x8 | x8 | x6[K:treble] x2 | x8 |[M:3/4][K:bass] x6 |] %33

